X:401
T: John of Badenyon
N: O'Farrell's Pocket Companion v.4 (Sky ed. p.172)
N: "Scotch"
M: C
L: 1/8
R: strathspey
Q: 240
K: Am
c| A>GE>G A>GEc| c>dcA G3c| A<Ac>d e>dcG| A<Acd e3g|
a>eg>d e>cd>A| c>GA>E c3d| e>cd>A c>Gc>E| D<DE>G A3 :|
g| a>ge>g a>ge>a| g>ed>e g3e| a>ge>g a>ge>d| A<A c>d e3g|
a>eg>d e>cd>A| c>GA>E c3d| e>cd>A c>Gc>E| D<DE>G A3 :|
